X:1
L:1/4
Q:1/4=200
M:6/8
V:1
V:2 clef=bass
K:F
[V:1] [cea]/g/ z2 | [Bdg]3/4 z2 z/4 | [Adf]3/4 z2 z/4 | [Af]3/4 z/4 [Ag]3/4 z/4 [Ae]3/4 z/4 |
[V:2] [C,,C,]3/4 z/4 [C,,C,]/ [C,,C,]/[C,,C,]/[C,,C,]/ | [G,,,G,,]3/4 z/4 [G,,,G,,]/ [G,,,G,,]/[G,,,G,,]/[G,,,G,,]/ | [A,,,A,,]3/4 z/4 [A,,,A,,]/ [A,,,A,,]/[A,,,A,,]/[A,,,A,,]/ | [A,,,A,,]3/4 z/4 [A,,,A,,]/ [A,,,A,,]/[A,,,A,,]/[A,,,A,,]/ |